!! Stephen C. Foster, "The Voices that are Gone"
!! from 'Stephen Foster Song Book' Dover Publications (New York) pp. 144-147
!! NOTE:  Leading and trailing bars of rest have been omitted.
**kern
*M3/4
!!MM84
*C:
=1
2e
4f
=2
2f#
4a
=3
2g
4cc
=4
2ee
4cc
=5
2b
4cc
=6
2ff
4ee
=7
2ee
4dd
=8
2.a
=9
2dd
4cc
=10
{4e
4g}
4cc
=11
2dd
4cc
=12
{4e
4g}
4cc
=13
2cc
4cc
=14
4b
2a
=15
2cc
4a
=16
2.g
=17
2e
4f
=18
2f#
4a
=19
2g
4cc
=20
2ee
4cc
=21
2b
4cc
=22
2ff
4ee
=23
2ee
4dd
=24
2.a
=25
2dd
4cc
=26
{4e
4g}
4cc
=27
2dd
4cc
=28
{4e
4g}
4cc
=29
2cc
4b
=30
4b
[2ee
=31
4.ee]
8dd
{8cc
8dd}
=32
2.cc
!! Chorus:
=33
2ee
4ee
=34
2ff
4ee
=35
2ee
4dd
=36
2a
4dd
=37
2dd
4dd
=38
2ee
4dd
=39
2cc
4a
=40
2.g
=41
2dd
4cc
=42
{4e
4g}
4cc
=43
2dd
4cc
=44
{4e
4g}
4cc
=45
2cc
4b
=46
4b
[2ee
=47
4.ee]
8dd
{8cc
8dd}
=48
2.cc
==
*-
